X:1
T:Title
%%score ( 1 2 ) { 3 | 4 }
L:1/8
Q:1/4=105
M:4/4
K:G
V:1 treble nm="Grand Piano, Soprano"
V:2 treble 
V:3 treble nm="Choir Pad, Sapporo, W M Stuckey 1898"
V:4 bass 
V:1
 [DG]>[DA] [GB]2 [Gc]2 [GB]2 | [FA]2 [FA]2 G4 | z4 z2 .A2 | [CE]2 [B,D]6 | %4
w: By~W.~M.~Stuckey,~1898 * * * *||||
 [B,D]>[B,D] [B,G]2 [DG]2 [DA]2 | [DA]2 [DB]2 [Gd]4 | [DG]>[EA] [DB]2 [B,D]2 [DB]2 | [CA]2 [B,G]6 | %8
w: ||||
 [DB]>[DB] [Ec]2 [Ec]2 [EG]2 | [EA]2 [^DB]2 [DB]4 | z4 z2 .A2 | [^CE]2 [DF]6 | %12
w: ||||
 [CE]>[CD] [B,G]2 [DA]2 [DB]2 | [DA]2 [DB]2 [Gd]4 | [Ge]>[Ge] [Gd]2 G2 [GB]2 | [FA]2 G6- | %16
w: ||||
 G2 z2 z4 |] %17
w: |
V:2
 x8 | x8 | G>G [EG]2 [EG]2 E-[EG] | x8 | x8 | x8 | x8 | x8 | x8 | x8 | %10
 [^DB]>[DA] [EG]2 [EG]2 ^C-[CG] | x8 | x8 | x8 | x8 | x8 | x8 |] %17
V:3
 B,>C D2 E2 D2 | C2 C2 B,4 | D>D C2 C2 C2 | G,2 G,6 | G,>G, G,2 G,2 F,2 | F,2 G,2 B,4 | %6
 G,>G, G,2 G,2 G,2 | F,2 G,6 | G,>G, G,2 G,2 G,2 | E,2 F,2 F,4 | F,>B, B,2 B,2 A,2 | A,2 A,6 | %12
 G,>F, G,2 F,2 G,2 | F,2 G,2 B,4 | C>C B,2 B,2 D2 | C2 B,6- | B,2 z2 z4 |] %17
V:4
 G,>G, G,2 C,2 D,2 | D,2 A,2 G,4 | B,,>B,, C,2 C,2 C,2 | C,2 G,,6 | G,,>G,, G,,2 B,,2 D,2 | %5
 D,2 z2 G,4 | B,,>C, D,2 D,2 D,2 | D,2 G,,6 | z2 C,2 C,2 C,2 | C,2 B,,2 B,,4 | %10
 B,,>B,, E,2 E,2 A,,2 | A,,2 D,6 | D,>D, E,2 D,2 z2 | D,2 z2 G,4 | C,>C, D,2 E,2 D,2 | %15
 D,2 [G,,G,]6- | [G,,G,]2 z2 z4 |] %17

